X:1
T:Lead Them to Thee
T:Lead Them to Thee
T:Robert Lowry
T:Robert Lowry, 1868
T:Public Domain Courtesy of the Cyber Hymnal™
C:Robert Lowry
Z:Public Domain
Z:Courtesy of the Cyber Hymnal™
%%score ( 1 2 ) ( 3 4 )
L:1/8
Q:1/4=110
M:4/4
K:G
V:1 treble 
V:2 treble 
V:3 bass 
V:4 bass 
V:1
 [GB]4 [GB]2 [FA]2 | [EG]3 E [EG]4 | (G2 D2) E2 [EG]2 | [FA]8 | [GB]4 [GB]2 [FA]2 | [EG]3 E [EG]4 | %6
w: 1.~Lead them, my|God, to Thee,|Lead * them to|Thee,|These child- ren|dear of mine,|
w: 2.~When earth looks|bright and fair,|Fes- * tive and|gay,|Let no de-|lu- sive snare,|
w: 3.~E’en for such|lit- tle ones,|Christ * came a|child,|And through this|world of sin,|
w: 4.~Yea, though my|faith be dim,|I * would be-|lieve|That Thou this|pre- cious gift,|
 ([DF]2 [EG]2) [FA]3 [DF] | [DG]8 | [FA]4 D2 D2 | [GB]3 [FA] G4 ||"^Refrain" [FA]4 D2 D2 | %11
w: Thou * gav- est|me.|O, by Thy|love di- vine,||
w: Lure * them a-|way;|But from temp-|ta- tion’s power,|Lead them, my|
w: Movèd * un- de-|filed;|O, for His|sake, I pray,||
w: Wilt * now re-|ceive;|O, take their|young hearts now;||
 [GB]3 [FA] G4 | [Ec]4 [CE]2 z2 | D4 [DG]2 z2 | ([DF]2 [EG]2) [FA]2 [GB]2 | [DG]8 |] %16
w: |||||
w: God, to Thee,|Lead them,|lead them,|Lead * them to|Thee.|
w: |||||
w: |||||
V:2
 x8 | x3 E x4 | D4 E2 x2 | x8 | x8 | x3 E x4 | x8 | x8 | x4 D2 D2 | x4 G4 || x4 D2 D2 | x4 G4 | %12
 x8 | D4 x4 | x8 | x8 |] %16
V:3
 [G,D]4 [G,D]2 [D,C]2 | [E,B,]3 [C,G,] [C,G,]4 | ([G,,B,]2 [B,,G,]2) [C,G,]2 [C,G,]2 | [D,D]8 | %4
 [G,D]4 [G,D]2 [D,C]2 | [E,B,]3 [C,G,] [C,G,]4 | (A,2 B,2) [D,C]3 [D,A,] | [G,,B,]8 | %8
 (D2 C2) [D,A,]2 [D,F,]2 | [G,D]3 [D,C] [G,,B,]4 || (D2 C2) [D,A,]2 [D,F,]2 | %11
 [G,D]3 [D,C] [G,,B,]4 | [C,G,]4 [C,G,]2 z2 | [B,,G,]4 [G,,B,]2 z2 | (A,2 B,2) [D,C]2 [D,D]2 | %15
 [G,,B,]8 |] %16
V:4
 x8 | x8 | x8 | x8 | x8 | x8 | D,4 x4 | x8 | D,4 x4 | x8 || D,4 x4 | x8 | x8 | x8 | D,4 x4 | x8 |] %16

